packages/ffe-icons/icons/filled/md/nest_heat_link_e.svg

<svg xmlns="http://www.w3.org/2000/svg" height="24" viewBox="0 -960 960 960" width="24"><path d="M480.067-100.001q-78.836 0-148.204-29.92-69.369-29.92-120.682-81.21-51.314-51.291-81.247-120.629-29.933-69.337-29.933-148.173t29.92-148.204q29.92-69.369 81.21-120.682 51.291-51.314 120.629-81.247 69.337-29.933 148.173-29.933t148.204 29.92q69.369 29.92 120.682 81.21 51.314 51.291 81.247 120.629 29.933 69.337 29.933 148.173t-29.92 148.204q-29.92 69.369-81.21 120.682-51.291 51.314-120.629 81.247-69.337 29.933-148.173 29.933ZM480-160q133 0 226.5-93.5T800-480q0-133-93.5-226.5T480-800q-133 0-226.5 93.5T160-480q0 133 93.5 226.5T480-160Zm0-180.001q-57.749 0-98.874-41.125-41.125-41.125-41.125-98.874 0-57.749 41.125-98.874 41.125-41.125 98.874-41.125 57.749 0 98.874 41.125 41.125 41.125 41.125 98.874 0 57.749-41.125 98.874-41.125 41.125-98.874 41.125Z"/></svg>

<svg xmlns="http://www.w3.org/2000/svg" height="24" viewBox="0 -960 960 960" width="24"><path d="M480.07-100q-78.84 0-148.21-29.92t-120.68-81.21q-51.31-51.29-81.25-120.63Q100-401.1 100-479.93q0-78.84 29.92-148.21t81.21-120.68q51.29-51.31 120.63-81.25Q401.1-860 479.93-860q78.84 0 148.21 29.92t120.68 81.21q51.31 51.29 81.25 120.63Q860-558.9 860-480.07q0 78.84-29.92 148.21t-81.21 120.68q-51.29 51.31-120.63 81.25Q558.9-100 480.07-100Zm-.07-60q133 0 226.5-93.5T800-480q0-133-93.5-226.5T480-800q-133 0-226.5 93.5T160-480q0 133 93.5 226.5T480-160Zm0-180q-57.75 0-98.87-41.13Q340-422.25 340-480q0-57.75 41.13-98.87Q422.25-620 480-620q57.75 0 98.87 41.13Q620-537.75 620-480q0 57.75-41.13 98.87Q537.75-340 480-340Z"/></svg>
